frontend/public/drawerEventDashboardOrange.svg

<svg width="36" height="36" viewBox="0 0 36 36" fill="none" xmlns="http://www.w3.org/2000/svg">
<path d="M36 2.25V33.75H0V2.25H6.75V0H9V2.25H27V0H29.25V2.25H36ZM2.25 4.5V9H33.75V4.5H29.25V6.75H27V4.5H9V6.75H6.75V4.5H2.25ZM33.75 31.5V11.25H2.25V31.5H33.75ZM24.75 15.75V27H22.5V18.457C22.1836 18.6211 21.8203 18.7734 21.4102 18.9141C21 19.0547 20.6133 19.125 20.25 19.125V16.875C20.3906 16.875 20.5723 16.8398 20.7949 16.7695C21.0176 16.6992 21.2461 16.6113 21.4805 16.5059C21.7148 16.4004 21.9258 16.2773 22.1133 16.1367C22.3008 15.9961 22.4297 15.873 22.5 15.7676V15.75H24.75ZM18 19.125C18 19.582 17.9355 19.9922 17.8066 20.3555C17.6777 20.7188 17.4961 21.0586 17.2617 21.375C17.0273 21.6914 16.7695 21.9902 16.4883 22.2715C16.207 22.5527 15.9082 22.8223 15.5918 23.0801C15.2754 23.3379 14.9766 23.6074 14.6953 23.8887C14.4141 24.1699 14.1387 24.457 13.8691 24.75H18V27H11.25V26.3672C11.25 26.1445 11.2441 25.9219 11.2324 25.6992C11.2207 25.4766 11.2441 25.2539 11.3027 25.0312C11.3613 24.8086 11.4199 24.5977 11.4785 24.3984C11.6074 24.082 11.8008 23.7715 12.0586 23.4668C12.3164 23.1621 12.6094 22.8516 12.9375 22.5352C13.2656 22.2188 13.5879 21.9199 13.9043 21.6387C14.2207 21.3574 14.5195 21.0703 14.8008 20.7773C15.082 20.4844 15.3105 20.209 15.4863 19.9512C15.6621 19.6934 15.75 19.418 15.75 19.125C15.75 18.8086 15.6387 18.5449 15.416 18.334C15.1934 18.123 14.9297 18.0117 14.625 18C14.3555 18 14.1211 18.082 13.9219 18.2461C13.7227 18.4102 13.5879 18.627 13.5176 18.8965L11.3203 18.4395C11.3906 18.0527 11.5254 17.6953 11.7246 17.3672C11.9238 17.0391 12.1816 16.7578 12.498 16.5234C12.8145 16.2891 13.1484 16.1016 13.5 15.9609C13.8516 15.8203 14.2266 15.75 14.625 15.75C15.0938 15.75 15.5332 15.8379 15.9434 16.0137C16.3535 16.1895 16.7109 16.4297 17.0156 16.7344C17.3203 17.0391 17.5605 17.3965 17.7363 17.8066C17.9121 18.2168 18 18.6562 18 19.125Z" fill="#FB4A04"/>
</svg>

<?xml version="1.0" encoding="UTF-8"?>
<svg id="Layer_1" data-name="Layer 1" xmlns="http://www.w3.org/2000/svg" width="36" height="36" viewBox="0 0 36 36">
  <defs>
    <style>
      .cls-1 {
        fill: #eece93;
        stroke-width: 0px;
      }
    </style>
  </defs>
  <path class="cls-1" d="M36,2.25v31.5H0V2.25h6.75V0h2.25v2.25h18V0h2.25v2.25h6.75ZM2.25,4.5v4.5h31.5v-4.5h-4.5v2.25h-2.25v-2.25H9v2.25h-2.25v-2.25H2.25ZM33.75,31.5V11.25H2.25v20.25h31.5ZM24.75,15.75v11.25h-2.25v-8.54c-.32.16-.68.32-1.09.46-.41.14-.8.21-1.16.21v-2.25c.14,0,.32-.04.54-.11.22-.07.45-.16.69-.26.23-.11.45-.23.63-.37.19-.14.32-.26.39-.37v-.02h2.25ZM18,19.12c0,.46-.06.87-.19,1.23-.13.36-.31.7-.54,1.02s-.49.62-.77.9c-.28.28-.58.55-.9.81-.32.26-.62.53-.9.81s-.56.57-.83.86h4.13v2.25h-6.75v-.63c0-.22,0-.45-.02-.67-.01-.22.01-.45.07-.67.06-.22.12-.43.18-.63.13-.32.32-.63.58-.93.26-.3.55-.62.88-.93s.65-.62.97-.9c.32-.28.62-.57.9-.86.28-.29.51-.57.69-.83.18-.26.26-.53.26-.83,0-.32-.11-.58-.33-.79-.22-.21-.49-.32-.79-.33-.27,0-.5.08-.7.25-.2.16-.33.38-.4.65l-2.2-.46c.07-.39.21-.74.4-1.07.2-.33.46-.61.77-.84.32-.23.65-.42,1-.56.35-.14.73-.21,1.12-.21.47,0,.91.09,1.32.26.41.18.77.42,1.07.72.3.3.54.66.72,1.07.18.41.26.85.26,1.32Z"/>
</svg>
